X: 18
T:Martin Wynne's #2
M:C |
L:1/8
C:Martin Wynne
R:Reel
K:Bm
FB{B}AF {F}EEFE | {E}DB, B,/B,/B, DB,A,D | B,E {F}E/E/E FEDE | FABc dcBA | FB{B}AF {F}EEFE | {E}DB, B,/B,/B, DB,A,D | B,E {F}E/E/E FEDE | FBBA B3 A :|
FBAF {B}AAFA | B/c/d eg fdde | fa{b}af egfe | {e}dfed BAFE | FBAF {B}AAFA | B/c/d eg fd d/d/d | bf{b}af egfe |1 dBAd B2 BA :|2 dBAd B3 A ||

